Sources/Octicons.swift/Resources/Media.xcassets/arrow-down-right-24.imageset/arrow-down-right-24.svg

<svg xmlns="http://www.w3.org/2000/svg" viewBox="0 0 24 24" width="24" height="24">  <path fill-rule="evenodd" clip-rule="evenodd" d="M18.25 8.50002C18.6642 8.50002 19 8.8358 19 9.25002L19 18.25C19 18.6642 18.6642 19 18.25 19L9.25 19C8.83579 19 8.5 18.6642 8.5 18.25C8.5 17.8358 8.83579 17.5 9.25 17.5L16.4393 17.5L6.21967 7.28035C5.92678 6.98745 5.92678 6.51258 6.21967 6.21969C6.51256 5.92679 6.98744 5.92679 7.28033 6.21969L17.5 16.4393L17.5 9.25001C17.5 8.8358 17.8358 8.50001 18.25 8.50002Z"></path></svg>

<svg xmlns="http://www.w3.org/2000/svg" width="24" height="24" viewBox="0 0 24 24"><path d="M18.25 8.5a.75.75 0 0 1 .75.75v9a.75.75 0 0 1-.75.75h-9a.75.75 0 0 1 0-1.5h7.19L6.22 7.28a.751.751 0 0 1 .018-1.042.751.751 0 0 1 1.042-.018L17.5 16.44V9.25a.75.75 0 0 1 .75-.75Z"/></svg>
